src/icons/main-issue.svg

<svg enable-background="new 0 0 14 14" viewBox="0 0 14 14" xmlns="http://www.w3.org/2000/svg"><path d="m7 0c3.9 0 7 3.1 7 7s-3.1 7-7 7-7-3.1-7-7 3.1-7 7-7zm0 1.4c-3.1 0-5.6 2.5-5.6 5.6s2.5 5.6 5.6 5.6 5.6-2.5 5.6-5.6-2.5-5.6-5.6-5.6zm.7 9.8h-1.4v-1.4h1.4zm0-2.1h-1.4v-6.3h1.4z" fill="#4d5969"/></svg>

<?xml version="1.0" encoding="utf-8"?>
<!-- Generator: Adobe Illustrator 20.1.0, SVG Export Plug-In . SVG Version: 6.00 Build 0)  -->
<svg version="1.1" id="Layer_1" xmlns="http://www.w3.org/2000/svg" xmlns:xlink="http://www.w3.org/1999/xlink" x="0px" y="0px"
	 viewBox="0 0 14 14" style="enable-background:new 0 0 14 14;" xml:space="preserve">
<style type="text/css">
	.st0{fill:#4D5969;}
</style>
<title>HDL/Icon/Standard/issue</title>
<desc>Created with Sketch.</desc>
<g id="Colors">
	<g id="Main-Icons" transform="translate(-119.000000, -312.000000)">
		<g id="Issue" transform="translate(100.000000, 294.000000)">
			<g id="HDL_x2F_Icon_x2F_Standard_x2F_issue" transform="translate(19.000000, 18.000000)">
				<path id="pt-icon-issue-20" class="st0" d="M7,0c3.9,0,7,3.1,7,7s-3.1,7-7,7s-7-3.1-7-7S3.1,0,7,0z M7,1.4
					C3.9,1.4,1.4,3.9,1.4,7s2.5,5.6,5.6,5.6s5.6-2.5,5.6-5.6S10.1,1.4,7,1.4z M7.7,11.2H6.3V9.8h1.4V11.2z M7.7,9.1H6.3V2.8h1.4V9.1
					z"/>
			</g>
		</g>
	</g>
</g>
</svg>
